**kern	**kern	**dynam
*part1	*part1	*part1
*staff2	*staff1	*
*I"Piano	*	*
*clefF4	*clefG2	*
*k[b-e-]	*k[b-e-]	*
=1	=1	=1
2EE- 2E-	2e- 2g 2b- 2ee-	ff >
=	=	=
2EE- 2E-	2e- 2g-X 2b- 2ee-	] f >
=	=	=
[2FF [2F	[2c [2e- [2f [2an	] mf >
=	=	=
2FF] 2F]	2c] 2e-] 2f] 2a]	.
=	=	=
4BBB- 4BB-	12r	] mp
.	12dL 12f 12b-	.
.	12B-J	.
4BBB- 4BB-	12r	.
*	*clefF4	*
.	12B-L 12d 12f	.
.	12FJ	.
=	=	=
!	!LO:TX:b:i:t=dim.	!
4BBB- 4BB-	12r	.
.	12B-L 12d	.
.	12FJ	.
4BBB- 4BB-	12r	.
.	12FL 12B-	.
.	12DJ	.
=	=	=
!	!	!LO:DY:a
4BBB- 4BB-	4D 4F 4B-	p
4r	4r	.
=	=	=
4BBB- 4BB-	4E- 4G-X 4B-	pp
4r	4r	.
=	=	=
2BBB-; 2BB-	2D; 2F 2B-	ppp
==	==	==
*-	*-	*-
!!!system-decoration: {(s1,s2)}
